context/brand-context/default/img/icons/email.svg

<svg id="i-email" viewBox="0 0 18 18" xmlns="http://www.w3.org/2000/svg"><path d="m16.0049107 2c1.1018574 0 1.9950893.89706013 1.9950893 2.00585866v9.98828264c0 1.1078052-.8926228 2.0058587-1.9950893 2.0058587h-14.00982141c-1.10185739 0-1.99508929-.8970601-1.99508929-2.0058587v-9.98828264c0-1.10780515.8926228-2.00585866 1.99508929-2.00585866zm0 1h-14.00982141c-.54871518 0-.99508929.44887827-.99508929 1.00585866v9.98828264c0 .5572961.44630695 1.0058587.99508929 1.0058587h14.00982141c.5487152 0 .9950893-.4488783.9950893-1.0058587v-9.98828264c0-.55729607-.446307-1.00585866-.9950893-1.00585866zm-.0049107 2.55749512v1.44250488l-7 4-7-4v-1.44250488l7 4z" fill="currentColor" fill-rule="evenodd"/></svg>

<svg id="i-email" viewBox="0 0 18 18" xmlns="http://www.w3.org/2000/svg"><path d="M16.005 2A2 2 0 0 1 18 4.006v9.988A2 2 0 0 1 16.005 16H1.995A2 2 0 0 1 0 13.994V4.006A2 2 0 0 1 1.995 2zm0 1H1.995A1 1 0 0 0 1 4.006v9.988A1 1 0 0 0 1.995 15h14.01A1 1 0 0 0 17 13.994V4.006A1 1 0 0 0 16.005 3zM16 5.557V7l-7 4-7-4V5.557l7 4z" fill="currentColor" fill-rule="evenodd"/></svg>
